resources/settings/NETWORK.svg

<svg width="24px" height="24px" viewBox="0 0 24 24" fill="none" xmlns="http://www.w3.org/2000/svg">
    <ellipse
       style="opacity:1;fill:#006633;fill-opacity:0.15;stroke:#006633;stroke-width:0;stroke-miterlimit:4;stroke-dasharray:none;stroke-opacity:1"
       cx="12" cy="12" rx="9" ry="9" />
<path
   d="m 11.997755,2.0017929 c -5.5115955,0 -9.9955546,4.4849798 -9.9955546,9.9976641 0,5.512684 4.4839591,9.997664 9.9955546,9.997664 5.511595,0 9.995553,-4.48498 9.995553,-9.997664 0,-5.5126843 -4.483958,-9.9976641 -9.995553,-9.9976641 z m 0.161254,18.7428741 c -0.958029,0 -1.917541,-0.651612 -2.7018483,-1.83489 C 9.1290862,18.414778 8.840045,17.838873 8.5953062,17.204186 h 2.8459608 v 1.549722 c 0,0.307508 0.249191,0.556679 0.556562,0.556679 0.307371,0 0.556562,-0.249171 0.556562,-0.556679 v -1.549722 h 3.162458 c -0.822524,2.13327 -2.124211,3.540481 -3.55784,3.540481 z M 3.1332825,12.556136 h 1.7801073 c 0.2167622,0.867159 0.9276031,1.540146 1.8149112,1.701805 0.083113,0.640554 0.199546,1.253198 0.3458105,1.832811 H 4.1149834 C 3.5576793,15.02089 3.2120174,13.824178 3.1332825,12.556136 Z M 12.554316,3.2912108 c 1.024148,0.1871184 2.001322,1.0944315 2.751865,2.5639907 -0.283179,0.2444935 -0.496306,0.5677388 -0.604797,0.9357409 H 12.554241 V 3.2912108 Z m 4.037743,4.9145877 c -0.473076,0 -0.858067,-0.3849994 -0.858067,-0.8582511 0,-0.4732515 0.384916,-0.8582511 0.858067,-0.8582511 0.473153,0 0.858072,0.3849996 0.858072,0.8582511 0,0.4732517 -0.384919,0.8582511 -0.858072,0.8582511 z M 14.701458,7.9042269 c 0.223367,0.7575291 0.889904,1.3267523 1.698403,1.4053553 0.116805,0.6911738 0.186856,1.4056528 0.210826,2.1331948 H 12.554391 V 7.9042269 Z M 11.441192,11.442777 H 9.3678883 C 9.1751694,10.671888 8.5920411,10.05427 7.841573,9.8129692 7.9312908,9.1482195 8.0627877,8.5082609 8.2302759,7.9042269 h 3.2109161 z m -4.3005158,1.739661 c -0.6521422,0 -1.182731,-0.530627 -1.182731,-1.182981 0,-0.652354 0.5305147,-1.18298 1.182731,-1.18298 0.6522162,0 1.1827311,0.530626 1.1827311,1.18298 0,0.652354 -0.5305891,1.182981 -1.1827311,1.182981 z M 6.7290431,9.7408979 C 5.8414382,9.9023343 5.1302264,10.575396 4.9133898,11.442852 H 3.1332825 C 3.2121657,10.173325 3.55857,8.9751293 4.1170613,7.904301 H 7.0795286 C 6.9297021,8.4925256 6.8116369,9.1075449 6.7290431,9.7408979 Z m 1.1133463,4.4447511 c 0.7500969,-0.241452 1.3328544,-0.85892 1.5254989,-1.629513 h 2.0733037 v 3.534616 H 8.2287174 C 8.0618232,15.487982 7.9318845,14.848615 7.8423894,14.185649 Z m 4.7119266,1.905103 v -3.534616 h 4.056742 c -0.04274,1.262622 -0.229451,2.462304 -0.527696,3.534616 z m 5.170311,-3.534616 h 1.360089 c 0.30737,0 0.556562,-0.249169 0.556562,-0.556679 0,-0.307508 -0.249192,-0.55668 -0.556562,-0.55668 h -1.360311 c -0.02464,-0.798426 -0.10174,-1.5831214 -0.231234,-2.3425805 0.473895,-0.2447161 0.836252,-0.6758084 0.989642,-1.1959696 h 1.395783 c 0.639527,1.2262532 1.001737,2.6191381 1.001737,4.0952301 0,1.474531 -0.361469,2.866081 -0.999659,4.091295 h -2.637881 c 0.279542,-1.102371 0.443766,-2.297526 0.481834,-3.534616 z m 1.464351,-5.7652679 h -0.706239 c -0.240805,-0.816834 -0.996987,-1.4149302 -1.890605,-1.4149302 -0.09217,0 -0.182774,0.00682 -0.271602,0.01915 -0.328074,-0.6495335 -0.700674,-1.2120766 -1.107705,-1.6775348 1.602452,0.6245943 2.980278,1.7015832 3.976151,3.073315 z M 11.441192,3.1331137 V 6.7909424 H 8.5958999 C 8.8341826,6.1736964 9.1149124,5.6125635 9.4327464,5.126397 9.6009764,4.8690626 9.5287717,4.5240699 9.2714918,4.3558042 9.0142119,4.1874644 8.6692918,4.2598328 8.5010618,4.5170927 8.0735481,5.1710798 7.7075529,5.9414497 7.4127237,6.7909424 H 4.8066042 C 6.3200813,4.7062153 8.716043,3.3024928 11.441192,3.1331137 Z M 4.8037101,17.204112 H 7.4053028 C 7.8680654,18.54222 8.5036589,19.65068 9.2556111,20.449924 7.4498277,19.862293 5.8964264,18.71093 4.8037101,17.204112 Z m 10.4155729,3.074725 c 0.35286,-0.406226 0.680936,-0.886829 0.978065,-1.437643 0.271751,-0.503758 0.508698,-1.053385 0.711434,-1.637082 h 2.283016 c -0.994761,1.371806 -2.371251,2.449239 -3.972515,3.074725 z"
   id="path872"
   style="stroke-width:0.0742161;fill:#006633;fill-opacity:1" />
<g
   id="g874"
   transform="matrix(0.07420825,0,0,0.07422392,2.0022004,2.0017929)"
   style="fill:#006633;fill-opacity:1">
</g>
<g
   id="g876"
   transform="matrix(0.07420825,0,0,0.07422392,2.0022004,2.0017929)"
   style="fill:#006633;fill-opacity:1">
</g>
<g
   id="g878"
   transform="matrix(0.07420825,0,0,0.07422392,2.0022004,2.0017929)"
   style="fill:#006633;fill-opacity:1">
</g>
<g
   id="g880"
   transform="matrix(0.07420825,0,0,0.07422392,2.0022004,2.0017929)"
   style="fill:#006633;fill-opacity:1">
</g>
<g
   id="g882"
   transform="matrix(0.07420825,0,0,0.07422392,2.0022004,2.0017929)"
   style="fill:#006633;fill-opacity:1">
</g>
<g
   id="g884"
   transform="matrix(0.07420825,0,0,0.07422392,2.0022004,2.0017929)"
   style="fill:#006633;fill-opacity:1">
</g>
<g
   id="g886"
   transform="matrix(0.07420825,0,0,0.07422392,2.0022004,2.0017929)"
   style="fill:#006633;fill-opacity:1">
</g>
<g
   id="g888"
   transform="matrix(0.07420825,0,0,0.07422392,2.0022004,2.0017929)"
   style="fill:#006633;fill-opacity:1">
</g>
<g
   id="g890"
   transform="matrix(0.07420825,0,0,0.07422392,2.0022004,2.0017929)"
   style="fill:#006633;fill-opacity:1">
</g>
<g
   id="g892"
   transform="matrix(0.07420825,0,0,0.07422392,2.0022004,2.0017929)"
   style="fill:#006633;fill-opacity:1">
</g>
<g
   id="g894"
   transform="matrix(0.07420825,0,0,0.07422392,2.0022004,2.0017929)"
   style="fill:#006633;fill-opacity:1">
</g>
<g
   id="g896"
   transform="matrix(0.07420825,0,0,0.07422392,2.0022004,2.0017929)"
   style="fill:#006633;fill-opacity:1">
</g>
<g
   id="g898"
   transform="matrix(0.07420825,0,0,0.07422392,2.0022004,2.0017929)"
   style="fill:#006633;fill-opacity:1">
</g>
<g
   id="g900"
   transform="matrix(0.07420825,0,0,0.07422392,2.0022004,2.0017929)"
   style="fill:#006633;fill-opacity:1">
</g>
<g
   id="g902"
   transform="matrix(0.07420825,0,0,0.07422392,2.0022004,2.0017929)"
   style="fill:#006633;fill-opacity:1">
</g>
</svg>

<?xml version="1.0" encoding="UTF-8"?>
<svg viewBox="0 0 24 24" xmlns="http://www.w3.org/2000/svg">
<ellipse cx="12" cy="12" rx="9" ry="9" fill="#063" fill-opacity=".15" stroke-width="0"/>
<path d="m11.998 2.0018c-5.5116 0-9.9956 4.485-9.9956 9.9977 0 5.5127 4.484 9.9977 9.9956 9.9977 5.5116 0 9.9956-4.485 9.9956-9.9977 0-5.5127-4.484-9.9977-9.9956-9.9977zm0.16125 18.743c-0.95803 0-1.9175-0.65161-2.7018-1.8349-0.32807-0.495-0.61712-1.0709-0.86185-1.7056h2.846v1.5497c0 0.30751 0.24919 0.55668 0.55656 0.55668s0.55656-0.24917 0.55656-0.55668v-1.5497h3.1625c-0.82252 2.1333-2.1242 3.5405-3.5578 3.5405zm-9.0257-8.1885h1.7801c0.21676 0.86716 0.9276 1.5401 1.8149 1.7018 0.083113 0.64055 0.19955 1.2532 0.34581 1.8328h-2.9591c-0.5573-1.0699-0.90297-2.2666-0.9817-3.5346zm9.421-9.2649c1.0241 0.18712 2.0013 1.0944 2.7519 2.564-0.28318 0.24449-0.49631 0.56774-0.6048 0.93574h-2.1471v-3.4997zm4.0377 4.9146c-0.47308 0-0.85807-0.385-0.85807-0.85825 0-0.47325 0.38492-0.85825 0.85807-0.85825 0.47315 0 0.85807 0.385 0.85807 0.85825 0 0.47325-0.38492 0.85825-0.85807 0.85825zm-1.8906-0.30157c0.22337 0.75753 0.8899 1.3268 1.6984 1.4054 0.1168 0.69117 0.18686 1.4057 0.21083 2.1332h-4.0563v-3.5386zm-3.2603 3.5386h-2.0733c-0.19272-0.77089-0.77585-1.3885-1.5263-1.6298 0.089718-0.66475 0.22121-1.3047 0.3887-1.9087h3.2109zm-4.3005 1.7397c-0.65214 0-1.1827-0.53063-1.1827-1.183s0.53051-1.183 1.1827-1.183c0.65222 0 1.1827 0.53063 1.1827 1.183s-0.53059 1.183-1.1827 1.183zm-0.41163-3.4415c-0.8876 0.16144-1.5988 0.8345-1.8157 1.702h-1.7801c0.078883-1.2695 0.42529-2.4677 0.98378-3.5386h2.9625c-0.14983 0.58822-0.26789 1.2032-0.35049 1.8366zm1.1133 4.4448c0.7501-0.24145 1.3329-0.85892 1.5255-1.6295h2.0733v3.5346h-3.2125c-0.16689-0.60277-0.29683-1.2421-0.38633-1.9051zm4.7119 1.9051v-3.5346h4.0567c-0.04274 1.2626-0.22945 2.4623-0.5277 3.5346zm5.1703-3.5346h1.3601c0.30737 0 0.55656-0.24917 0.55656-0.55668 0-0.30751-0.24919-0.55668-0.55656-0.55668h-1.3603c-0.02464-0.79843-0.10174-1.5831-0.23123-2.3426 0.4739-0.24472 0.83625-0.67581 0.98964-1.196h1.3958c0.63953 1.2263 1.0017 2.6191 1.0017 4.0952 0 1.4745-0.36147 2.8661-0.99966 4.0913h-2.6379c0.27954-1.1024 0.44377-2.2975 0.48183-3.5346zm1.4644-5.7653h-0.70624c-0.2408-0.81683-0.99699-1.4149-1.8906-1.4149-0.09217 0-0.18277 0.00682-0.2716 0.01915-0.32807-0.64953-0.70067-1.2121-1.1077-1.6775 1.6025 0.62459 2.9803 1.7016 3.9762 3.0733zm-7.7478-3.6578v3.6578h-2.8453c0.23828-0.61725 0.51901-1.1784 0.83685-1.6645 0.16823-0.25733 0.096025-0.60233-0.16125-0.77059-0.25728-0.16834-0.6022-0.095971-0.77043 0.16129-0.42751 0.65399-0.79351 1.4244-1.0883 2.2738h-2.6061c1.5135-2.0847 3.9094-3.4884 6.6346-3.6578zm-6.6375 14.071h2.6016c0.46276 1.3381 1.0984 2.4466 1.8503 3.2458-1.8058-0.58763-3.3592-1.739-4.4519-3.2458zm10.416 3.0747c0.35286-0.40623 0.68094-0.88683 0.97806-1.4376 0.27175-0.50376 0.5087-1.0534 0.71143-1.6371h2.283c-0.99476 1.3718-2.3713 2.4492-3.9725 3.0747z" fill="#063" stroke-width=".074216"/>
</svg>
